Obsidian-SemiLight/actions/24s/media-random-albums-amarok.svg

<svg viewBox="0 0 24 24" xmlns="http://www.w3.org/2000/svg"><path d="m3 4v16h1 4v-2c-.55228 0-1 .44772-1 1h-1v-7-7h1c0 .55228.44772 1 1 1s1-.44772 1-1h4 4c0 .55228.44772 1 1 1s1-.44772 1-1h1v7h1v-8h-17zm17 8c0-3.86599-3.13401-7-7-7s-7 3.13401-7 7c.00206 1.854914.7493049 3.583962 2 4.867188v-1.580079c-.6338492-.962115-.99867-2.09558-1-3.287109 0-3.31371 2.68629-6 6-6s6 2.68629 6 6zm-16-7h1v14h-1zm14 7v1h-1-.023438c-1.649005 0-2.976562 1.327554-2.976562 2.976562v.023438c0 1.108-.892 2-2 2h-3v1h3 .023438c1.649005 0 2.976562-1.327554 2.976562-2.976562v-.023438c0-1.108.892-2 2-2h1v1l2-1.5zm-9 1v1h3c.398899 0 .766762.118675 1.078125.318359.07572-.336861.209875-.649217.388672-.93164-.428875-.238906-.915691-.386719-1.443359-.386719h-.023438zm9 4v1h-1c-.398899 0-.766762-.118675-1.078125-.318359-.07572.336861-.209875.649217-.388672.93164.428874.238906.915687.386719 1.443359.386719h.023438 1v1l2-1.5z" fill="#4d4d4d"/></svg>

<svg xmlns="http://www.w3.org/2000/svg" viewBox="0 0 24 24">
  <defs id="defs3051">
    <style type="text/css" id="current-color-scheme">
      .ColorScheme-Text {
        color:#4d4d4d;
      }
      </style>
  </defs>
 <path style="fill:currentColor;fill-opacity:1;stroke:none" 
     d="M 3 4 L 3 20 L 4 20 L 8 20 L 8 18 C 7.44772 18 7 18.44772 7 19 L 6 19 L 6 12 L 6 5 L 7 5 C 7 5.55228 7.44772 6 8 6 C 8.55228 6 9 5.55228 9 5 L 13 5 L 17 5 C 17 5.55228 17.44772 6 18 6 C 18.55228 6 19 5.55228 19 5 L 20 5 L 20 12 L 21 12 L 21 4 L 4 4 L 3 4 z M 20 12 C 20 8.13401 16.86599 5 13 5 C 9.13401 5 6 8.13401 6 12 C 6.00206 13.854914 6.7493049 15.583962 8 16.867188 L 8 15.287109 C 7.3661508 14.324994 7.00133 13.191529 7 12 C 7 8.68629 9.68629 6 13 6 C 16.31371 6 19 8.68629 19 12 L 20 12 z M 4 5 L 5 5 L 5 19 L 4 19 L 4 5 z M 18 12 L 18 13 L 17 13 L 16.976562 13 C 15.327557 13 14 14.327554 14 15.976562 L 14 16 C 14 17.108 13.108 18 12 18 L 9 18 L 9 19 L 12 19 L 12.023438 19 C 13.672443 19 15 17.672446 15 16.023438 L 15 16 C 15 14.892 15.892 14 17 14 L 18 14 L 18 15 L 20 13.5 L 18 12 z M 9 13 L 9 14 L 12 14 C 12.398899 14 12.766762 14.118675 13.078125 14.318359 C 13.153845 13.981498 13.288 13.669142 13.466797 13.386719 C 13.037922 13.147813 12.551106 13 12.023438 13 L 12 13 L 9 13 z M 18 17 L 18 18 L 17 18 C 16.601101 18 16.233238 17.881325 15.921875 17.681641 C 15.846155 18.018502 15.712 18.330858 15.533203 18.613281 C 15.962077 18.852187 16.44889 19 16.976562 19 L 17 19 L 18 19 L 18 20 L 20 18.5 L 18 17 z "
     class="ColorScheme-Text"
     />
</svg>
